assets/prototypes/02_schedule_Edge/01 old/images/Collections-01.svg

<svg enable-background="new 0 0 31 31" height="31" viewBox="0 0 31 31" width="31" xmlns="http://www.w3.org/2000/svg"><path d="m0 31h21v-21h-21zm2.994-18.002h15.007v15.008h-15.007zm2.011-5.024 18.016.006.005 18.016h2.969v-20.991h-20.99zm5.005-7.974v2.988l17.992.006.006 17.973h2.992v-20.967z"/></svg>

<svg height="31" viewBox="0 0 31 31" width="31" xmlns="http://www.w3.org/2000/svg"><path d="M0 31h21V10H0zm2.994-18.002h15.007v15.008H2.994zm2.011-5.024l18.016.006.005 18.016h2.969V5.005H5.005zM10.01 0v2.988l17.992.006.006 17.973H31V0z"/></svg>
